X: 11266
T: Dusty Windowsills
R: jig
M: 6/8
K: Adorian
|:A2B cBA|eAB cBA|G3 EGG|DGG EGG|
A2B cBA|~e2d efg|age dBG|1 ABA A2E:|2 ABA Ace||
|:a3 age|def g3|gbg bfe|dBA G3|
EGG DGG|EGG ABd|Bed BAG|1 BAG Ace:|2 BAG A3||
|:~A3 gAf|~A3 edB|~G3 edB|~G3 edB|
~A3 gAf|~A3 efg|age dBG|1 ABA A3:|2 ABA A2E||

